src/assets/images/ic_gif.svg

<svg width="20" height="20" viewBox="0 0 22 22" version="1.1" xmlns="http://www.w3.org/2000/svg" xmlns:xlink="http://www.w3.org/1999/xlink">
    <g id="" stroke="none" stroke-width="1" fill="none" fill-rule="evenodd">
        <g id="Icon/Arrows/Gig" transform="translate(-2.000000, -2.000000)" stroke="#3A3C3E">
            <circle id="" stroke-width="2" stroke-linecap="round" stroke-linejoin="round" cx="13" cy="13" r="10"></circle>
            <path d="M8.63930664,9.37744141 C9.24575499,9.37744141 9.7701638,9.49462773 10.2125488,9.72900391 C10.8541536,10.0659197 11.2467278,10.6562458 11.3902832,11.5 L10.5245605,11.5 C10.4190913,11.028318 10.2008317,10.6848155 9.86977539,10.4694824 C9.53871905,10.2541493 9.12124275,10.1464844 8.61733398,10.1464844 C8.01967475,10.1464844 7.51650595,10.3706032 7.1078125,10.8188477 C6.69911905,11.2670921 6.49477539,11.9350542 6.49477539,12.8227539 C6.49477539,13.5903359 6.66323074,14.2150855 7.00014648,14.6970215 C7.33706223,15.1789575 7.88637314,15.4199219 8.6480957,15.4199219 C9.23110643,15.4199219 9.71376762,15.2507341 10.0960938,14.9123535 C10.4784199,14.5739729 10.6739746,14.0268592 10.6827637,13.2709961 L8.6612793,13.2709961 L8.6612793,12.5458984 L11.495752,12.5458984 L11.495752,16 L10.933252,16 L10.7223145,15.1694336 C10.4264145,15.4946305 10.1642101,15.7202142 9.93569336,15.8461914 C9.55190238,16.0629894 9.06411429,16.1713867 8.47231445,16.1713867 C7.70766219,16.1713867 7.04995393,15.9238306 6.49916992,15.4287109 C5.89858098,14.8076141 5.59829102,13.9550835 5.59829102,12.8710938 C5.59829102,11.7900337 5.89125684,10.930179 6.47719727,10.2915039 C7.03384067,9.68212586 7.75453659,9.37744141 8.63930664,9.37744141 Z M13.2720215,9.54443359 L14.1553223,9.54443359 L14.1553223,16 L13.2720215,16 L13.2720215,9.54443359 Z M15.883252,9.54443359 L20.3612793,9.54443359 L20.3612793,10.3354492 L16.7577637,10.3354492 L16.7577637,12.2954102 L19.9262207,12.2954102 L19.9262207,13.0644531 L16.7577637,13.0644531 L16.7577637,16 L15.883252,16 L15.883252,9.54443359 Z" id="GIF" stroke-width="0.7" fill="#3A3C3E" fill-rule="nonzero"></path>
        </g>
    </g>
</svg>

<svg width="20" height="20" viewBox="0 0 22 22" xmlns="http://www.w3.org/2000/svg"><g transform="translate(-2 -2)" stroke="#3A3C3E" fill="none" fill-rule="evenodd"><circle stroke-width="2" stroke-linecap="round" stroke-linejoin="round" cx="13" cy="13" r="10"/><path d="M8.64 9.377c.606 0 1.13.118 1.573.352.641.337 1.034.927 1.177 1.771h-.865c-.106-.472-.324-.815-.655-1.03-.331-.216-.749-.324-1.253-.324-.597 0-1.1.225-1.51.673-.408.448-.612 1.116-.612 2.004 0 .767.168 1.392.505 1.874.337.482.886.723 1.648.723.583 0 1.066-.17 1.448-.508.382-.338.578-.885.587-1.641H8.66v-.725h2.835V16h-.563l-.21-.83c-.297.325-.559.55-.787.676-.384.217-.872.325-1.464.325-.764 0-1.422-.247-1.973-.742-.6-.621-.9-1.474-.9-2.558 0-1.081.292-1.94.878-2.58.557-.609 1.278-.914 2.162-.914zm4.632.167h.883V16h-.883V9.544zm2.611 0h4.478v.791h-3.603v1.96h3.168v.77h-3.168V16h-.875V9.544z" stroke-width=".7" fill="#3A3C3E" fill-rule="nonzero"/></g></svg>
